X:148
T:RVW2/2/148 The Bailiff's Daughter
C:Mr. Adams (and his daughter), Salisbury, Wiltshire, September 1904
L:1/8
Q:1/4=120
M:4/4
I:linebreak $
K:D
"^(Editorial suggestion " B2 | B3 c d2 cc | BB B2 F3 F | d2 de f2 (fe) |[M:3/4] f4 de |$ 
w: There|was a youth and a|well be- lov'd youth and|he was a squi- re's _|son and he|
[M:4/4] f2 f2 e3 c | d2 (fd) c2 (fe) | (dc)(dc) B2 (dc) | B6 |] 
w: loved the bai- liff's|daugh- ter * fair that _|lived _ in _ Is- ling- *|ton.|



